usr/share/icons/biglinux-icons-material/symbolic/status/user-busy-symbolic.svg

<svg width="16" height="16" version="1.1" xmlns="http://www.w3.org/2000/svg">
 <path d="m2 1c-1.108 0-2 0.892-2 2v8c0 1.108 0.892 2 2 2h1.522l2.478 3 2-3h6c1.108 0 2-0.892 2-2v-8c0-1.108-0.892-2-2-2zm0 1h12c0.554 0 1 0.446 1 1v8c0 0.554-0.446 1-1 1h-6.434l-1.566 2.4-1.967-2.4h-2.033c-0.554 0-1-0.446-1-1v-8c0-0.554 0.446-1 1-1zm6 1c-2.203 0-4 1.797-4 4s1.797 4 4 4 4-1.797 4-4-1.797-4-4-4zm-2.5 3h5c0.277 0 0.5 0.223 0.5 0.5v1c0 0.277-0.223 0.5-0.5 0.5h-5a0.499 0.499 0 0 1-0.5-0.5v-1c0-0.277 0.223-0.5 0.5-0.5zm-4.2 7c0.153 0.017 0.322 0.021 0.524 0z" fill="#363636" font-family="Ubuntu" font-size="15px" font-weight="400" letter-spacing="0" stroke-width=".087" text-anchor="middle" word-spacing="0"/>
</svg>

<svg xmlns="http://www.w3.org/2000/svg" width="16" height="16"><path fill="#dedede" d="M2 1C.892 1 0 1.892 0 3v8c0 1.108.892 2 2 2h1.522L6 16l2-3h6c1.108 0 2-.892 2-2V3c0-1.108-.892-2-2-2zm0 1h12c.554 0 1 .446 1 1v8c0 .554-.446 1-1 1H7.566L6 14.4 4.033 12H2c-.554 0-1-.446-1-1V3c0-.554.446-1 1-1zm6 1C5.797 3 4 4.797 4 7s1.797 4 4 4 4-1.797 4-4-1.797-4-4-4zM5.5 6h5c.277 0 .5.223.5.5v1c0 .277-.223.5-.5.5h-5a.499.499 0 0 1-.5-.5v-1c0-.277.223-.5.5-.5zm-4.2 7c.153.017.322.021.524 0z" font-family="Ubuntu" font-size="15" font-weight="400" letter-spacing="0" text-anchor="middle" word-spacing="0"/></svg>
